X:370
T: Molly Myers'
S: "Johnny O'Leary of Sliabh Luachra" (#330)
Z: B.Black
L: 1/8
M: 6/8
R: jig
K: G
B|dBG B2B|dBG ABA|G/A/Bd edB|ABd edB|
dBG B2B|dBG ABA|G/A/Bd efe|GAG G2 :|
A|B/A/BB dcd|G/A/BG BAG|B2d dBd|eAA AGA|
B2B dcd|GAG BAG|g2e dBd|GAG G2 :|
